!!!COM: Fux, Johann Joseph
!!!OMD: Gradus ad Parnassum Exercise
!!!YEC: CC0 1.0 Universal (Public Domain). Mark Gotham and FourScoreAndMore.org waive all rights to this document.
**kern	**kern	**kern
*part3	*part2	*part1
*staff3	*staff2	*staff1
*I"3	*I"2	*I"1
*I'Pno	*I'Pno	*I'Pno
!!LO:PB:g=z
*clefGv2	*clefG2	*clefG2
*k[]	*k[]	*k[]
!!LO:TX:omd:t=
*M4/4	*M4/4	*M4/4
=88	=88	=88
!	!	!LO:TX:a:t=Fig. 112; Species&colon; 1; Modal final&colon; f; Cantus firmus&colon; 3
1F	1f	1a
=89	=89	=89
1G	1d	1b-X
=90	=90	=90
1A	1c	1cc
=91	=91	=91
1F	1c	1a
=92	=92	=92
1D	1f	1b-X
=93	=93	=93
1E	1g	1cc
=94	=94	=94
1F	1c	1a
=95	=95	=95
1c	1e	1g
=96	=96	=96
1A	1e	1cc
=97	=97	=97
1F	1f	1a
=98	=98	=98
1G	1e	1b-X
=99	=99	=99
1F	1f	1a
==	==	==
*-	*-	*-
!!!software: music21 v.9.7.1
!!!software: music21 v.9.7.1
!!!software: MuseScore 3.4.2
!!!RDF**kern: > = above
!!!RDF**kern: < = below
